X:1
T:Karácsony
T: 
C:Kárpátia
Z:All Rights Reserved
L:1/8
Q:1/4=120
M:4/4
K:G
V:1 treble nm="MusicXML Part"
%%MIDI program 0
V:1
 G2 g3 f ed | d4 B4 | B g6 f | eB d6 | d2 e3 d ce | d2 G2 G A2 c | B2 A G3 z2 |: d4 B3 c | d4 A4 | %9
w: Egy csil- lag fenn az|é- gen|meg- állt, nem|megy to- vább,|Is- ten el- küld- te|hoz- zánk Meg- vál- tó|egy Fi- át.|Ná, ná- ná|ná- ná|
 A2 B2 c2 d2 | A4 d4 :| %11
w: ná- ná- ná- ná|ná- ná.|

